x = 249, y = 305, rule = B3/S23
120b2o$120b2o3$119b3o$119bo$120bo30$162b2o$161b2o$163bo4$164b2o$163b2o
$165bo12$168b2o$167b2o$169bo42$222b3o$222bo$223bo4$231b3o$231bo$223b3o
6bo$223bo$224bo5$234bo$233b2o$233bobo3$243b3o$243bo$244bo11$247bo$246b
2o$246bobo42$184bo$183bobo$183bobo$2o182bo$2o$6b3o170b2o7b2o$6bo171bo
2bo5bo2bo$7bo171b2o7b2o4b3o$194bo$184bo10bo$183bobo$183bobo$184bo$203b
3o$203bo$19b3o173b3o6bo$19bo175bo$20bo175bo5$206bo$205b2o$205bobo3$
215b3o$215bo$216bo$23bo$22b2o$22bobo3$28b3o$28bo$29bo3$219bo$218b2o$
218bobo8$46bo$45b2o$45bobo36$77b3o$77bo$78bo2$91b3o$91bo$92bo4$100b3o$
100bo$92b3o6bo$92bo$93bo5$103bo$102b2o$102bobo3$112b3o$112bo$113bo11$
116bo$115b2o$115bobo!
